src/img/header-logo.svg

<svg width="219" height="45" viewBox="0 0 219 45" fill="none" xmlns="http://www.w3.org/2000/svg">
<path d="M31.185 30.8664H39.3486C38.1512 35.4152 35.8654 38.8809 32.4911 41.2635C29.1168 43.7545 24.8718 45 19.7559 45C13.5516 45 8.70784 42.9964 5.2247 38.9892C1.74157 35.0903 0 29.5126 0 22.2563C0 15.3249 1.68714 9.90975 5.06143 6.01083C8.54457 2.00361 13.3883 0 19.5926 0C26.1235 0 31.185 1.94946 34.7769 5.84838C38.2601 9.8556 40.0016 15.4332 40.0016 22.5812C40.0016 23.0144 40.0016 23.3935 40.0016 23.7184C40.0016 24.0433 40.0016 24.2599 40.0016 24.3682C40.0016 24.9097 39.9472 25.2888 39.8384 25.5054H11.5923C11.7012 28.8628 12.5175 31.3538 14.0414 32.9783C15.4564 34.7112 17.579 35.5776 20.409 35.5776C22.2594 35.5776 23.8377 35.1986 25.1439 34.4404C25.4704 34.3321 25.7426 34.1697 25.9602 33.9531C26.2868 33.6282 26.6133 33.3032 26.9399 32.9783C27.0487 32.6534 27.4297 32.2202 28.0828 31.6787C28.8447 31.1372 29.8788 30.8664 31.185 30.8664ZM11.5923 18.1949H28.2461C28.0284 15.2708 27.2664 13.1047 25.9602 11.6968C24.5452 10.1805 22.5315 9.42238 19.9192 9.42238C17.5245 9.42238 15.5653 10.1805 14.0414 11.6968C12.5175 13.213 11.7012 15.3791 11.5923 18.1949Z" fill="#3D9090"/>
<path d="M87.4224 22.4188C85.8985 23.1769 83.776 23.8809 81.0547 24.5307C78.5512 25.0722 77.2995 25.343 77.2995 25.343C75.3402 25.8845 73.9252 26.5884 73.0544 27.4549C72.2925 28.6462 71.9115 29.8375 71.9115 31.0289C71.9115 32.6534 72.4013 33.9531 73.381 34.9278C74.3606 35.7942 75.7756 36.2274 77.626 36.2274C80.6738 36.2274 83.0684 35.361 84.81 33.6282C86.5516 31.8953 87.4224 29.5126 87.4224 26.4801V22.4188ZM90.0347 42.4007C87.7489 43.5921 85.2998 44.296 82.6875 44.5126C80.184 44.8375 77.9526 45 75.9933 45C72.0748 45 68.6461 43.9711 65.7072 41.9134C62.7683 39.7473 61.2988 36.2274 61.2988 31.3538C61.2988 26.8051 62.605 23.556 65.2174 21.6065C67.9386 19.657 71.3673 18.3574 75.5035 17.7076C76.0477 17.7076 76.7008 17.6534 77.4628 17.5451C78.2247 17.3285 79.0955 17.1661 80.0751 17.0578C84.8644 16.4079 87.2591 15 87.2591 12.8339C87.2591 11.2094 86.3883 10.1805 84.6467 9.74729C83.014 9.20578 81.4901 8.93502 80.0751 8.93502C78.5512 8.93502 77.1907 9.15162 75.9933 9.58484C74.796 10.0181 73.9252 10.8303 73.381 12.0217H62.4417C62.8771 8.66426 64.401 5.90253 67.0134 3.73646C69.9523 1.24549 74.1429 0 79.5853 0C85.6808 0 90.2524 1.02888 93.3001 3.08664C96.4567 5.25271 98.035 8.2852 98.035 12.1841V26.9675C98.035 31.2996 97.2187 34.7112 95.586 37.2022C94.0621 39.5848 92.2117 41.3177 90.0347 42.4007Z" fill="#3D9090"/>
<path d="M119.169 29.8917H130.271C130.38 32.0578 131.197 33.6823 132.721 34.7653C134.353 35.8484 136.53 36.3899 139.251 36.3899C141.211 36.3899 142.898 36.0108 144.313 35.2527C145.619 34.4946 146.272 33.4657 146.272 32.1661C146.272 30.2166 143.986 28.7545 139.415 27.7798C137.455 27.4549 135.986 27.13 135.006 26.8051C129.237 25.3971 125.373 23.7184 123.414 21.769C121.237 19.8195 120.149 17.2202 120.149 13.9711C120.149 9.8556 121.727 6.44404 124.883 3.73646C128.149 1.24549 132.394 0 137.619 0C143.279 0 147.796 1.24549 151.17 3.73646C154.327 6.44404 156.014 9.9639 156.232 14.296H149.211C147.143 14.296 145.565 13.3755 144.476 11.5343C144.041 11.1011 143.605 10.6679 143.17 10.2347C141.864 9.25993 140.068 8.77256 137.782 8.77256C135.605 8.77256 133.972 9.09747 132.884 9.74729C131.904 10.3971 131.414 11.3718 131.414 12.6715C131.414 14.4043 134.244 15.8664 139.905 17.0578C140.558 17.2744 141.102 17.4368 141.537 17.5451C142.081 17.6534 142.571 17.7076 143.007 17.7076C148.558 19.1155 152.422 20.7401 154.599 22.5812C156.667 24.5307 157.701 27.13 157.701 30.3791C157.701 35.1444 155.96 38.8267 152.476 41.426C149.211 43.8087 144.313 45 137.782 45C131.578 45 126.952 43.7545 123.904 41.2635C120.747 38.7726 119.169 35.1444 119.169 30.3791V29.8917Z" fill="#3D9090"/>
<path d="M210.183 30.8664H218.347C217.15 35.4152 214.864 38.8809 211.489 41.2635C208.115 43.7545 203.87 45 198.754 45C192.55 45 187.706 42.9964 184.223 38.9892C180.74 35.0903 178.998 29.5126 178.998 22.2563C178.998 15.3249 180.686 9.90975 184.06 6.01083C187.543 2.00361 192.387 0 198.591 0C205.122 0 210.183 1.94946 213.775 5.84838C217.258 9.8556 219 15.4332 219 22.5812C219 23.0144 219 23.3935 219 23.7184C219 24.0433 219 24.2599 219 24.3682C219 24.9097 218.946 25.2888 218.837 25.5054H190.591C190.7 28.8628 191.516 31.3538 193.04 32.9783C194.455 34.7112 196.577 35.5776 199.407 35.5776C201.258 35.5776 202.836 35.1986 204.142 34.4404C204.469 34.3321 204.741 34.1697 204.959 33.9531C205.285 33.6282 205.612 33.3032 205.938 32.9783C206.047 32.6534 206.428 32.2202 207.081 31.6787C207.843 31.1372 208.877 30.8664 210.183 30.8664ZM190.591 18.1949H207.244C207.027 15.2708 206.265 13.1047 204.959 11.6968C203.544 10.1805 201.53 9.42238 198.918 9.42238C196.523 9.42238 194.564 10.1805 193.04 11.6968C191.516 13.213 190.7 15.3791 190.591 18.1949Z" fill="#3D9090"/>
</svg>

<svg width="219" height="45" fill="none" xmlns="http://www.w3.org/2000/svg"><path d="M31.2 30.9h8.1c-1.1 4.5-3.4 8-6.8 10.4A20.9 20.9 0 0 1 19.8 45c-6.2 0-11-2-14.6-6C1.7 35 0 29.5 0 22.3A24 24 0 0 1 5 6c3.5-4 8.4-6 14.6-6C26 0 31.2 2 34.8 5.8c3.5 4 5.2 9.6 5.2 16.8v1.8c0 .5 0 .9-.2 1.1H11.6c.1 3.4 1 5.9 2.4 7.5 1.5 1.7 3.6 2.6 6.4 2.6 1.9 0 3.4-.4 4.7-1.2.4 0 .6-.2.9-.4l1-1c0-.3.4-.8 1-1.3.8-.6 1.9-.8 3.2-.8ZM11.6 18.2h16.6c-.2-3-1-5.1-2.2-6.5-1.5-1.5-3.5-2.3-6-2.3a8 8 0 0 0-6 2.3 9.3 9.3 0 0 0-2.4 6.5Z" fill="#3D9090"/><path d="M87.4 22.4c-1.5.8-3.6 1.5-6.3 2.1l-3.8.8c-2 .6-3.4 1.3-4.2 2.2a6.6 6.6 0 0 0-1.2 3.5c0 1.7.5 3 1.5 4 1 .8 2.4 1.2 4.2 1.2 3 0 5.5-.8 7.2-2.6a9.6 9.6 0 0 0 2.6-7.1v-4Zm2.6 20a19.2 19.2 0 0 1-7.3 2.1c-2.5.3-4.7.5-6.7.5-4 0-7.4-1-10.3-3-3-2.3-4.4-5.8-4.4-10.6 0-4.6 1.3-7.8 4-9.8a23.7 23.7 0 0 1 12.2-4A16 16 0 0 1 80 17c4.8-.7 7.2-2.1 7.2-4.3 0-1.6-1-2.6-2.7-3a12 12 0 0 0-8.7-.2c-1.1.4-2 1.2-2.5 2.4h-11c.5-3.3 2-6.1 4.6-8.3A19 19 0 0 1 79.6 0c6 0 10.7 1 13.7 3 3.2 2.3 4.7 5.3 4.7 9.2V27c0 4.3-.8 7.7-2.4 10.2a14 14 0 0 1-5.6 5.2Z" fill="#3D9090"/><path d="M119.2 29.9h11a6 6 0 0 0 2.5 4.9c1.7 1 3.8 1.6 6.6 1.6 2 0 3.6-.4 5-1.1 1.3-.8 2-1.8 2-3.1 0-2-2.3-3.4-6.9-4.4-2-.3-3.4-.7-4.4-1-5.8-1.4-9.6-3-11.6-5a10 10 0 0 1-3.3-7.8A13 13 0 0 1 125 3.7C128 1.2 132.4 0 137.6 0c5.7 0 10.2 1.2 13.6 3.7 3.1 2.7 4.8 6.3 5 10.6h-7c-2 0-3.6-1-4.7-2.8l-1.3-1.3a8.8 8.8 0 0 0-5.4-1.4c-2.2 0-3.8.3-5 1-.9.6-1.4 1.6-1.4 2.9 0 1.7 2.8 3.2 8.5 4.4l1.6.4c.6.2 1 .2 1.5.2 5.6 1.4 9.4 3 11.6 4.9 2 2 3.1 4.5 3.1 7.8a13 13 0 0 1-5.2 11 24.9 24.9 0 0 1-14.7 3.6c-6.2 0-10.8-1.2-13.9-3.7-3.2-2.5-4.7-6.2-4.7-11V30Z" fill="#3D9090"/><path d="M210.2 30.9h8.1c-1.2 4.5-3.4 8-6.8 10.4a20.9 20.9 0 0 1-12.7 3.7c-6.3 0-11-2-14.6-6-3.5-4-5.2-9.5-5.2-16.7A24 24 0 0 1 184 6c3.5-4 8.4-6 14.6-6 6.5 0 11.6 2 15.2 5.8 3.5 4 5.2 9.6 5.2 16.8v1.8c0 .5 0 .9-.2 1.1h-28.2c.1 3.4 1 5.9 2.4 7.5 1.5 1.7 3.6 2.6 6.4 2.6 1.9 0 3.4-.4 4.7-1.2.4 0 .6-.2.9-.4l1-1c0-.3.4-.8 1-1.3.8-.6 1.9-.8 3.2-.8Zm-19.6-12.7h16.6c-.2-3-1-5.1-2.2-6.5-1.5-1.5-3.5-2.3-6-2.3a8 8 0 0 0-6 2.3 9.3 9.3 0 0 0-2.4 6.5Z" fill="#3D9090"/></svg>
